X:1
T:Mechlin, LM
T:Mechlin, LM
T:Public domain
Z:Public domain
%%score ( 1 2 ) 3
L:1/8
M:3/4
K:C
V:1 treble nm="Staff"
V:2 treble 
V:3 bass nm="Mechlin, LM"
V:1
 ([CEG]2 | [CE-A]2 [B,G]2 [DFA]2 | [Ac]2 [GB]2 [CFA]2 x2 | [B,DG]2 E2 F2 x4 | [DG]4 | %5
 [B,DG]2 [DGB]2 [FAc]2 | [FAd]2 [EGc]2 [DGB]2 [CG]2 [FA]2 | [Ec]4) | [CFA]2 | %9
 [CGc]2 [DGB]2 [CEc]2 [EG]2 | [CFA]2 [B,DG]2 [CF]2 | [B,G]4 | [B,DG]2 x6 | [CFA]2 [B,DG]2 [FA]2 | %14
 c2 B2 [CA]2 | [B,G]2 E3 F | G4 |] %17
V:2
 x2 | x6 | E4 x4 | x2 A,4 C4 | C2 B,2 | x6 | x10 | x4 | x2 | x8 | x6 | x4 | x8 | x6 | E4 x2 | %15
 x2 C4 | C2 B,2 |] %17
V:3
 (C,2 | A,,2 E,2 D,2 | A,,2 E,,2 F,,2 x2 | [G,,G,]2 A,,4 x4 | [G,,G,]4 | G,2 G,2 F, E, | %6
 D,2 E,2 G,2 E,2 [D,F,]2 | [C,G,]4) | (F,,2 | E,,2 G,,2 A,,2 [C,G,]2 | F,,2 G,,2 [A,,F,]2 | %11
 [G,,D,]4 | G,,2 F,,2 G,,2 [D,A,]2 | [A,,A,]2 [E,,E,G,]2 [F,,F,]2 | [G,,D,]2 [A,,A,]4 | %15
 [G,,D,]4) x2 | x4 |] %17

